!!!!SEGMENT: Lfg2001-Videns_Dominus.krn
!!!id: Lfg2001
!!!AGN: Motet
!!!voices: 4
!!!COM: Jean de la Fage
!!!OTL: Videns Dominus
**kern	**kern	**kern	**kern
*part4	*part3	*part2	*part1
*staff4	*staff3	*staff2	*staff1
*I"Bassus	*I"Tenor	*I"Altus	*I"Superius
*I'B	*I'T	*I'A	*I'S
*clefF4	*clefGv2	*clefGv2	*clefG2
*k[]	*k[]	*k[]	*k[]
*C:	*C:	*C:	*C:
*M2/1	*M2/1	*M2/1	*M2/1
*met(C2)	*met(C2)	*met(C2)	*met(C2)
=1	=1	=1	=1
[0E	[0B	[0e	0e
=2	=2	=2	=2
0E]	0B]	0e]	0g
=3	=3	=3	=3
1C	1c	1e	1g
[1D	[1A	[1d	[1f
=4	=4	=4	=4
1D]	1A]	1d]	1f]
1D	1A	1d	1f
=5	=5	=5	=5
0AA	1.A	1.c	[0e
.	4G	4B	.
.	4F	4A	.
=6	=6	=6	=6
0E;	0G;	0B;	0e;]
=7	=7	=7	=7
0E	0B	0e	0g
=8	=8	=8	=8
1G	1B	1e	1g
[1F	[1c	[1f	[1a
=9	=9	=9	=9
1F]	1c]	1f]	1a]
1G	1B	2e	1g
.	.	2d	.
=10	=10	=10	=10
0C;	0c	0e	0g
=11	=11	=11	=11
0G	1.B	0d	1.g
.	2c	.	2a
=12	=12	=12	=12
1G	2d	1g	1b
.	2.e	.	.
2C	.	[1e	1g
.	4d	.	.
[2c	4c	.	.
.	4B	.	.
=13	=13	=13	=13
4c]	1A	1e]	1.cc
4B	.	.	.
4A	.	.	.
4G	.	.	.
2A	2r	1f	.
2A	2c	.	2b
=14	=14	=14	=14
1G	1d	[0g	[0b
2.E	[1e	.	.
4F	.	.	.
=15	=15	=15	=15
0G	2e]	0g_	0b_
.	2d	.	.
.	2d	.	.
.	[2e	.	.
=16	=16	=16	=16
1r	2e]	0g]	0b]
.	4d	.	.
.	4c	.	.
[1G	1d	.	.
=17	=17	=17	=17
1G]	2r	2r	2r
.	2d	1g	2.b
1G	2e	.	.
.	.	.	4g
.	[2d	2g	4a
.	.	.	4b
=18	=18	=18	=18
0A	2d]	2e	1.cc
.	4c	2.f	.
.	4B	.	.
.	1c	.	.
.	.	4d	.
.	.	4e	2cc
.	.	4f	.
=19	=19	=19	=19
1G	1d	1g	1b
[1C	[1c	[1e	[1g
=20	=20	=20	=20
1C]	1c]	1e]	1g]
1C	1c	1e	1g
=21	=21	=21	=21
1F	1c	0f	0a
1D	1d	.	.
=22	=22	=22	=22
1.E	1B	[0e	[0g
.	[1G	.	.
2D	.	.	.
=23	=23	=23	=23
2C	2G]	1e]	1g]
2BB	2G	.	.
1AA	1A	1f	[1cc
=24	=24	=24	=24
0GG	0D	[0g	2cc]
.	.	.	4b
.	.	.	4a
.	.	.	[1b
=25	=25	=25	=25
2.G	0r	0g]	1b]
4F	.	.	.
4E	.	.	2r
4D	.	.	.
2C	.	.	2g
=26	=26	=26	=26
2C	0r	1r	2a
2BB	.	.	2b
1AA	.	2r	1cc
.	.	2c	.
=27	=27	=27	=27
1GG	2r	2d	1b
.	2G	2e	.
1r	2A	1f	1r
.	2B	.	.
=28	=28	=28	=28
2r	1c	1e	0r
2C	.	.	.
2D	1B	2r	.
2E	.	[2e	.
=29	=29	=29	=29
1F	2r	2e]	1r
.	2A	2d	.
2.E	2.c	1e	2r
.	.	.	2g
4D	4B	.	.
=30	=30	=30	=30
2C	2A	1r	2a
2BB	2G	.	2b
1AA	1A	2r	1cc
.	.	2c	.
=31	=31	=31	=31
1GG	2D	2d	1b
.	2G	2e	.
1r	2A	1f	1r
.	2B	.	.
=32	=32	=32	=32
2r	1c	1e	2r
2C	.	.	2e
2D	2B	2r	2f
2E	[2B	[2e	2g
=33	=33	=33	=33
1F	2B]	2e]	1a
.	2A	2d	.
1E	1B	1e	1g
=34	=34	=34	=34
0G	0B	0d	0g
=35	=35	=35	=35
1G	1B	1d	1g
1C	1c	1e	1g
=36	=36	=36	=36
1D	1A	1d	1f
1E	1G	2B	2e
.	.	[2c	[2e
=37	=37	=37	=37
0F	1A	4c]	2e]
.	.	4B	.
.	.	4A	4d
.	.	4G	4c
.	1D	2.A	1d
.	.	4B	.
=38	=38	=38	=38
0E;	0G;	1c	0e;
.	.	1B;	.
=39	=39	=39	=39
0C	0c	0e	0g
=40	=40	=40	=40
1C	1c	1e	1g
[1F	[1c	[1f	[1a
=41	=41	=41	=41
1F]	1c]	1f]	1a]
1C	1c	1e	1g
=42	=42	=42	=42
0C;	0c;	0e;	0g;
=43	=43	=43	=43
0AA	0c	0e	0a
=44	=44	=44	=44
1AA	1c	1e	1cc
[1D	[1A	[1f	[1dd
=45	=45	=45	=45
1D]	1A]	1f]	1dd]
1GG	1G	1d	1b
=46	=46	=46	=46
0GG;	0G;	0d;	0b;
=47	=47	=47	=47
0C	0G	0e	0cc
=48	=48	=48	=48
1AA	1A	1e	1cc
[1D	[1A	[1f	[1dd
=49	=49	=49	=49
1D]	1A]	1f]	1dd]
1GG	1G	1d	1b
=50	=50	=50	=50
0GG;	0G;	0d;	0b;
=51	=51	=51	=51
0G	0B	0d	0g
=52	=52	=52	=52
1C	1c	1e	1g
[1F	[1A	1c	[1a
=53	=53	=53	=53
1F]	1A]	1d	1a]
1E	1B	1e	1g
=54	=54	=54	=54
1.C	1.c	1.e	1.g
2C	2c	2e	2g
=55	=55	=55	=55
1C	1c	1e	1g
1F	2c	2r	1a
.	[2d	2A	.
=56	=56	=56	=56
1E	2d]	2B	1g
.	1c	2G	.
1D	.	1d	1f
.	2B	.	.
=57	=57	=57	=57
4C	1c	1G	0e
4D	.	.	.
4E	.	.	.
4F	.	.	.
4G	2B	1r	.
4E	.	.	.
[2A	[2c	.	.
=58	=58	=58	=58
4A]	4c]	0r	1r
4G	4B	.	.
1G	4A	.	.
.	4G	.	.
.	1A	.	1a
2F#i	.	.	.
=59	=59	=59	=59
1G	0G	1d	2b
.	.	.	2b
2C	.	2e	1cc
2E	.	2e	.
=60	=60	=60	=60
1D	2r	2.f	2.dd
.	2A	.	.
.	.	4e	4cc
1r	2B	2d	2b
.	2c	2c	[2a
=61	=61	=61	=61
1r	1d	1B	2a]
.	.	.	2g#i
1D	1d	1A	1a
=62	=62	=62	=62
2E	1c	1r	2r
2F	.	.	2a
1G	1B	1d	2b
.	.	.	2b
=63	=63	=63	=63
1E	1G	2e	1cc
.	.	2e	.
1D	1A	2.f	2.dd
.	.	4e	4cc
=64	=64	=64	=64
2r	0r	2d	2b
2C	.	2c	1a
2D	.	1B	.
2E	.	.	2g#i
=65	=65	=65	=65
2.F	2r	2.A	[0a
.	2c	.	.
4E	.	4G	.
2D	2d	4A	.
.	.	4B	.
2C	2e	[2c	.
=66	=66	=66	=66
1F	2c	2c]	1a]
.	2d	4B	.
.	.	4A	.
1E	1e	1B	2r
.	.	.	2g
=67	=67	=67	=67
2r	1d	1r	2a
2G	.	.	2b
2.A	1r	2r	2.cc
.	.	2c	.
4G	.	.	4b
=68	=68	=68	=68
2F	1r	2d	2a
2E	.	2.e	2g
1A	2r	.	1cc
.	.	4d	.
.	2c	4e	.
.	.	4f	.
=69	=69	=69	=69
1G	2d	1g	1b
.	2e	.	.
[1F	2.f	2r	1a
.	.	2c	.
.	4e	.	.
=70	=70	=70	=70
1F]	2d	2.f	2r
.	2c	.	2a
.	.	4e	.
2r	1f	2d	1a
2A	.	2c	.
=71	=71	=71	=71
2A	1e	1B	1b
2G	.	.	.
2F	1c	1A	1cc
2E	.	.	.
=72	=72	=72	=72
1D	1d	1f	2b
.	.	.	2.a
1E	2B	1e	.
.	.	.	4g
.	[2c	.	2g
=73	=73	=73	=73
0F	4c]	2A	2f
.	4B	.	.
.	4A	1c	1e
.	4G	.	.
.	2A	.	.
.	2D	4B	2d
.	.	4A	.
=74	=74	=74	=74
1E	1G	2c	0e
.	.	2B	.
2r	2r	2.E	.
[2E	[2G	.	.
.	.	4F	.
=75	=75	=75	=75
2E]	2G]	1G	0r
2E	2G	.	.
2F	2A	1r	.
2G	2B	.	.
=76	=76	=76	=76
0C	0c	2r	2r
.	.	1e	1g
.	.	2e	2g
=77	=77	=77	=77
1r	1r	2f	2a
.	.	2g	2b
2r	2r	[1c	[1cc
[2C	[2G	.	.
=78	=78	=78	=78
2C]	2G]	1c]	1cc]
2C	2E	.	.
2D	2F	1r	1r
2E	2G	.	.
=79	=79	=79	=79
0AA	0A	2r	2r
.	.	1c	1e
.	.	2c	2e
=80	=80	=80	=80
1r	1r	2d	2f
.	.	2e	2g
1AA	1c	2A	2a
.	.	2e	2a
=81	=81	=81	=81
2E	2B	2e	2g
2F	2A	2d	1a
1E	1B	1e	.
.	.	.	2g#i
=82	=82	=82	=82
3%4AA	3%4A	3%4c	3%4a
3%2r	3%2r	3%2r	3%2r
=83	=83	=83	=83
3%4AA	3%4A	3%4c	3%4e
3%2AA	3%2A	3%2c	3%2e
=84	=84	=84	=84
3%4D	3%4A	3%4d	3%4f
3%2D	3%2B	3%2d	3%2f
=85	=85	=85	=85
3%2C	3%2c	3%2e	3%2g
3%4F	3%4A	3%2c	3%4a
.	.	3%2d	.
=86	=86	=86	=86
3%4E	3%4B	3%4e	3%4g
3%2r	3%2r	3%2r	3%2r
=87	=87	=87	=87
3%4D	3%4d	3%4f	3%4a
3%2D	3%2d	3%2f	3%2a
=88	=88	=88	=88
3%4G	3%4d	3%4g	3%4b
3%2G	3%2B	3%2e	3%2g
=89	=89	=89	=89
3%2F	3%4c	3%2f	3%2a
3%4G	.	3%4d	3%4g
.	3%2B	.	.
=90	=90	=90	=90
0C	0c	0e	0g
=91	=91	=91	=91
1C	1c	1e	1g
[1F	[1A	[1c	[1f
=92	=92	=92	=92
1F]	1A]	1c]	1f]
1C	1G	1c	1e
=93	=93	=93	=93
0C	0G	0c	0e
=94	=94	=94	=94
3%4C	3%4G	3%4c	3%4e
3%2D	3%2F	3%2B	3%2f
=95	=95	=95	=95
3%2C	3%2G	3%2c	3%4e
3%4F	3%2A	3%4A	.
.	3%2D	.	3%2d
=96	=96	=96	=96
1E	1G	1B	0e
1AA	1A	1c	.
=97	=97	=97	=97
0E	[0G	0B	2r
.	.	.	2.e
.	.	.	4f
.	.	.	4g
.	.	.	4a
=98	=98	=98	=98
1E	1G]	2e	2b
.	.	1g	2cc
1D	2r	.	1dd
.	[2A	[2f	.
=99	=99	=99	=99
1E	4A]	4f]	2b
.	8GL	4e	.
.	8FJ	.	.
.	2G	1e	1cc
1F	1A	.	.
.	.	2d	4b
.	.	.	4a
=100	=100	=100	=100
0E	0B	[0el	2g
.	.	.	1a
.	.	.	2g#i
=101	=101	=101	=101
00AAl	00Al	00e]	00al
==	==	==	==
*-	*-	*-	*-
!!!system-decoration: [*]
!!!RDF**kern: i = editorial accidental
!!!RDF**kern: l = terminal long
!!!ENC: Benjamin Ory
!!!END: 2025/5/1
!!!EED: Benjamin Ory
!!!EEV: 2025/05/01
!!!YEC: Copyright 2025 Benjamin Ory, All Rights Reserved
!!!ONB: Translated from MusicXML on 2025/05/01